src/svgs/soundcloud.svg

<svg xmlns="http://www.w3.org/2000/svg" viewBox="0 0 24 24" width="512" height="512" aria-labelledby="jdsoundcloud-desc jdsoundcloud-title"><title id="jdsoundcloud-title">Soundcloud Icon</title><desc id="jdsoundcloud-desc">A picture showing the Soundcloud application icon.</desc><path d="M13.088 8.805a1.035 1.035 0 011.125-1.137 4.355 4.355 0 014.372 3.952 2.456 2.456 0 012.684 3.994 2.37 2.37 0 01-1.732.719s-4.262-.007-5.77-.007c-.391 0-.679-.16-.679-.787zm-1.1 7.025V8.374a.5.5 0 00-.5-.5h-.111a.5.5 0 00-.5.5v7.456a.5.5 0 00.5.5h.111a.5.5 0 00.5-.5zm-4.435 0V8.961a.5.5 0 00-.5-.5h-.115a.5.5 0 00-.5.5v6.869a.5.5 0 00.5.5h.112a.5.5 0 00.503-.5zm2.218 0V9.86a.5.5 0 00-.5-.5h-.115a.5.5 0 00-.5.5v5.97a.5.5 0 00.5.5h.112a.5.5 0 00.503-.5zm-4.436 0V10.6a.5.5 0 00-.5-.5h-.114a.5.5 0 00-.5.5v5.23a.5.5 0 00.5.5h.111a.5.5 0 00.503-.5zm-2.217-1.1v-2.771a.5.5 0 00-.5-.5H2.5a.5.5 0 00-.5.5v2.771a.5.5 0 00.5.5h.112a.5.5 0 00.506-.5z"/></svg>

<svg xmlns="http://www.w3.org/2000/svg" viewBox="0 0 24 24"><path d="M13.088,8.805a1.035,1.035,0,0,1,1.125-1.137,4.355,4.355,0,0,1,4.372,3.952,2.456,2.456,0,0,1,2.684,3.994,2.37,2.37,0,0,1-1.732.719s-4.262-.007-5.77-.007c-.391,0-.679-.16-.679-.787Zm-1.1,7.025V8.374a.5.5,0,0,0-.5-.5h-.111a.5.5,0,0,0-.5.5V15.83a.5.5,0,0,0,.5.5h.111A.5.5,0,0,0,11.988,15.83Zm-4.435,0V8.961a.5.5,0,0,0-.5-.5H6.938a.5.5,0,0,0-.5.5V15.83a.5.5,0,0,0,.5.5H7.05A.5.5,0,0,0,7.553,15.83Zm2.218,0V9.86a.5.5,0,0,0-.5-.5H9.156a.5.5,0,0,0-.5.5v5.97a.5.5,0,0,0,.5.5h.112A.5.5,0,0,0,9.771,15.83Zm-4.436,0V10.6a.5.5,0,0,0-.5-.5H4.721a.5.5,0,0,0-.5.5V15.83a.5.5,0,0,0,.5.5h.111A.5.5,0,0,0,5.335,15.83Zm-2.217-1.1V11.959a.5.5,0,0,0-.5-.5H2.5a.5.5,0,0,0-.5.5V14.73a.5.5,0,0,0,.5.5h.112A.5.5,0,0,0,3.118,14.73Z"/></svg>
